symbolic/22x22/actions/run-build-file.svg

<svg xmlns="http://www.w3.org/2000/svg" width="22" height="22" viewBox="0 0 22 22">
 <defs>
  <style id="current-color-scheme" type="text/css">
   .ColorScheme-Text { color:#323a41; } .ColorScheme-Highlight { color:#4285f4; } .ColorScheme-NeutralText { color:#ff9800; } .ColorScheme-PositiveText { color:#4caf50; } .ColorScheme-NegativeText { color:#f44336; }
  </style>
 </defs>
 <path style="fill:currentColor" class="ColorScheme-Text" d="M 7 1 L 7 2.0859375 C 6.1094 2.2386375 5.2648969 2.5905344 4.5292969 3.1152344 L 3.7578125 2.34375 L 2.34375 3.7578125 L 3.1132812 4.5273438 C 2.5902812 5.2640437 2.2405438 6.1092 2.0898438 7 L 1 7 L 1 9 L 2.0859375 9 C 2.2386375 9.8906 2.5905344 10.734703 3.1152344 11.470703 L 2.34375 12.242188 L 3.7578125 13.65625 L 4.5273438 12.886719 C 5.2640437 13.409719 6.1092 13.760156 7 13.910156 L 7 15 L 9 15 L 9 13.914062 C 9.8906 13.761062 10.734703 13.409766 11.470703 12.884766 L 12.242188 13.65625 L 13.65625 12.242188 L 12.886719 11.472656 C 13.409719 10.735656 13.760156 9.8908 13.910156 9 L 15 9 L 15 7 L 13.914062 7 C 13.761062 6.1094 13.409766 5.2648969 12.884766 4.5292969 L 13.65625 3.7578125 L 12.242188 2.34375 L 11.472656 3.1132812 C 10.735656 2.5902812 9.8908 2.2405438 9 2.0898438 L 9 1 L 7 1 z M 6 5 L 11 5 L 11 8.5 L 8.5 11 L 6 11 L 6 5 z" transform="translate(3 3)"/>
</svg>

<svg xmlns="http://www.w3.org/2000/svg" width="22" height="22"><defs><style id="current-color-scheme" type="text/css"></style></defs><path style="fill:currentColor;color:#323a41" d="M7 1v1.086a6.001 6.001 0 0 0-2.47 1.03l-.772-.772-1.414 1.414.77.77A6 6 0 0 0 2.09 7H1v2h1.086c.153.89.505 1.735 1.03 2.47l-.772.772 1.414 1.414.77-.77A5.99 5.99 0 0 0 7 13.91V15h2v-1.086a6.003 6.003 0 0 0 2.47-1.03l.772.772 1.414-1.414-.77-.77A5.992 5.992 0 0 0 13.91 9H15V7h-1.086a6.001 6.001 0 0 0-1.03-2.47l.772-.772-1.414-1.414-.77.77A6.002 6.002 0 0 0 9 2.09V1H7zM6 5h5v3.5L8.5 11H6V5z" transform="translate(3 3)"/></svg>
